!! 00000] TT[WS
!!!OTL: Zhu niangjia
!!!ARE: Asia, China, Shanxi Lishan
!! Ethnic Group: Han
!! WII, 133 (2)
!!!SCT: J0605
!!!YEM: Copyright 1995, estate of Helmut Schaffrath.
**kern
*ICvox
*Ivox
*M3/4
*k[b-e-]
*B-:
{4bb-
2ccc
=1
4fff
8ccc
8ddd
8ccc
8bb-
=2
8ccc
8bb-
4aa
4gg
=3
2.ff}
=4
{4bb-
2ccc
=5
4fff
8ccc
8ddd
8ccc
8bb-
=6
2ccc
4r}
=7
{4ff
4bb-
4ccc
=8
8fff
8fff
8fff
4ccc
8bb-
=9
4ff
4bb-
8ccc
8ddd
=10
4ccc
4bb-
8aa
8gg
=11
4ff
2ff}
=12
{4gg
8ccc
8ddd
8ccc
8bb-
=13
2.ff}
==
!!!AGN: Xiaodiao. Qingge, Aisu
!!!ONB: ESAC (Essen Associative Code) Database: CHINA
!!!AMT: simple triple
!!!AIN: vox
!!!EED: Helmut Schaffrath
!!!EEV: 1.0
*-
